X:811
T:(untitled)
T:Musique pour le Lour - concluded
C:John Malchair's Third Collection of Tunes
F:https://www.vwml.org/record/Malchair/3619/p81
F:www.vwml.org/topics/historic-dance-and-tune-books/Malchair
Z:Eric Conrad Mar 2020
M:3/8
L:1/8
K:G
%%MIDI program 68 % oboe (MIDI's take on a powerful woodwind - does this resemble the sound of the lur?)
B | d/B/ GB | A/F/ GB | d/B/ GB | A/F/ GB | \
d/B/ Gg | e/c/ d2 | d/B/ GB | A/F/ G2 |]


